X: 263
T:Ave maris stella verse 4 / Monstra te esse matrem / hymn
N: Derived from Jos2309b-Ave_maris_stella_verse_4__Monstra_te_esse_matrem-hymn.krn
C: Josquin des Prez
%%abc-version 2.0
%%abcx-abcm2ps-target-version 5.9.1 (29 Sep 2008)
%%abc-creator hum2abc beta
%%abcx-conversion-date 2019/02/12 16:15:51
%%abc-edited-by Jesse Rodin
%%abc-edited-by Jesse Rodin
%%abcx-initial-encoding-date 2016/03/16/
%%humdrum-veritas 2108490200
%%humdrum-veritas-data 2263184958
%%linebreak <none>
%%barnumbers 0
L: 1/4
M: 2/1
Q: 1/2=120
%%staves [1 2 3 4]
V: 1 clef=treble
V: 2 clef=treble-8
V: 3 clef=treble-8
V: 4 clef=bass
K: C
[V:1] z8 | 
[V:2] d4f4- | 
[V:3] D8 | 
[V:4] z8 | 
[V:1] z8 | 
[V:2] f2edf2e2 | 
[V:3] A8- | 
[V:4] z8 | 
[V:1] z8 | 
[V:2] c4F4 | 
[V:3] A8 | 
[V:4] z8 | 
[V:1] D8 | 
[V:2] G2D2G4 | 
[V:3] B8 | 
[V:4] z8 | 
[V:1] A8- | 
[V:2] F2G2A2B2 | 
[V:3] A4c4- | 
[V:4] z8 | 
[V:1] A8 | 
[V:2] c2d2e4- | 
[V:3] c2B2A4 | 
[V:4] A,,8 | 
[V:1] B8 | 
[V:2] e4e4 | 
[V:3] G8 | 
[V:4] E,8 | 
[V:1] A4c4- | 
[V:2] (3c4f6e2 | 
[V:3] A8- | 
[V:4] F,8- | 
[V:1] c2B2A4 | 
[V:2] (3e4c4d4 | 
[V:3] A8 | 
[V:4] F,8 | 
[V:1] G8 | 
[V:2] e4d4 | 
[V:3] B8 | 
[V:4] E,4G,4 | 
[V:1] A8- | 
[V:2] f8 | 
[V:3] c8 | 
[V:4] F,6E,2 | 
[V:1] A8 | 
[V:2] F8 | 
[V:3] d8- | 
[V:4] D,8 | 
[V:1] B8 | 
[V:2] G8 | 
[V:3] d8 | 
[V:4] G,,8 | 
[V:1] c8 | 
[V:2] E8 | 
[V:3] c6BA | 
[V:4] A,,8 | 
[V:1] d8- | 
[V:2] F8 | 
[V:3] B4A4- | 
[V:4] D,6C,2 | 
[V:1] d8 | 
[V:2] D8 | 
[V:3] A4^G4 | 
[V:4] B,,8 | 
[V:1] c6BA | 
[V:2] E4z2c2 | 
[V:3] A8 | 
[V:4] A,,4A,4 | 
[V:1] B4A4- | 
[V:2] d2e2f2d2 | 
[V:3] z8 | 
[V:4] G,4F,4 | 
[V:1] A4^G4 | 
[V:2] e2c2B4 | 
[V:3] z8 | 
[V:4] E,8 | 
[V:1] A8 | 
[V:2] ABcde2f2 | 
[V:3] A8 | 
[V:4] A,,3B,,C,2D,2 | 
[V:1] z8 | 
[V:2] e2f4e2 | 
[V:3] A8 | 
[V:4] C,2D,2A,,4 | 
[V:1] z8 | 
[V:2] f6ed | 
[V:3] D8- | 
[V:4] A,4A,3G, | 
[V:1] A8 | 
[V:2] d2f4ed | 
[V:3] D8 | 
[V:4] F,E,D,4C,B,, | 
[V:1] A8 | 
[V:2] c4A4 | 
[V:3] E4F4 | 
[V:4] A,,4A,,4 | 
[V:1] D8- | 
[V:2] B8 | 
[V:3] G8 | 
[V:4] G,,8 | 
[V:1] D8 | 
[V:2] A6B2 | 
[V:3] F8 | 
[V:4] D,8 | 
[V:1] E4F4 | 
[V:2] c4d4 | 
[V:3] E4D4 | 
[V:4] z8 | 
[V:1] G8 | 
[V:2] (3G2A2B2(3c2d2e2 | 
[V:3] E8 | 
[V:4] z4C,4 | 
[V:1] F8 | 
[V:2] A2d4cB | 
[V:3] D8 | 
[V:4] D,3E,F,2G,2 | 
[V:1] E4D4 | 
[V:2] c4z2d2- | 
[V:3] z8 | 
[V:4] A,4B,4 | 
[V:1] E8 | 
[V:2] d2cBc2A2- | 
[V:3] z8 | 
[V:4] A,8 | 
[V:1] D8 | 
[V:2] A2f4ed | 
[V:3] F8 | 
[V:4] D,8 | 
[V:1] z8 | 
[V:2] e2g2f2d2- | 
[V:3] E4F4 | 
[V:4] C,4D,4 | 
[V:1] z8 | 
[V:2] d2^cB^c4 | 
[V:3] G8 | 
[V:4] E,8 | 
[V:1] F8 | 
[V:2] d8 | 
[V:3] A8 | 
[V:4] D,8 | 
[V:1] E4F4 | 
[V:2] c8 | 
[V:3] A8 | 
[V:4] A,,8 | 
[V:1] G8 | 
[V:2] d4G4 | 
[V:3] D8 | 
[V:4] B,,8 | 
[V:1] A8 | 
[V:2] c8- | 
[V:3] E4F4- | 
[V:4] A,,8- | 
[V:1] A8 | 
[V:2] c6BA | 
[V:3] F2EDE2F2 | 
[V:4] A,,8 | 
[V:1] D8 | 
[V:2] B4G2A2 | 
[V:3] G6F2 | 
[V:4] G,,8 | 
[V:1] E4F4- | 
[V:2] B2c4B2 | 
[V:3] E2C2D4 | 
[V:4] z8 | 
[V:1] F2EDE2F2 | 
[V:2] c4g4- | 
[V:3] C8 | 
[V:4] z8 | 
[V:1] G6F2 | 
[V:2] g2f2e2d2- | 
[V:3] z8 | 
[V:4] C,3D,E,2F,2 | 
[V:1] E2C2D4 | 
[V:2] dcc4B2 | 
[V:3] z8 | 
[V:4] G,2A,2G,4 | 
[V:1] C8 | 
[V:2] c2e3fg2- | 
[V:3] E8 | 
[V:4] C,6B,,A,, | 
[V:1] z8 | 
[V:2] gfd2e2g2 | 
[V:3] G4E4 | 
[V:4] G,,4C,4 | 
[V:1] z8 | 
[V:2] fedcB4 | 
[V:3] F4G4 | 
[V:4] D,4E,4 | 
[V:1] E8 | 
[V:2] c8 | 
[V:3] A8 | 
[V:4] A,,8 | 
[V:1] G4E4 | 
[V:2] B4c4 | 
[V:3] G8 | 
[V:4] z4C,4 | 
[V:1] F4G4 | 
[V:2] A4G4 | 
[V:3] F4E4- | 
[V:4] D,4E,4 | 
[V:1] A8 | 
[V:2] c4d4 | 
[V:3] E2D2D4- | 
[V:4] F,8 | 
[V:1] G8 | 
[V:2] e8 | 
[V:3] D4C4 | 
[V:4] E,8 | 
[V:1] F4E4- | 
[V:2] A8 | 
[V:3] D4E4 | 
[V:4] D,4C,4 | 
[V:1] E2D2D4- | 
[V:2] _B8 | 
[V:3] F4G4 | 
[V:4] _B,,4G,,4 | 
[V:1] D4^C4 | 
[V:2] A8- | 
[V:3] E8 | 
[V:4] A,,8 | 
[V:1] D8 ||  
[V:2] A8 ||  
[V:3] D8 ||  
[V:4] D,8 ||  



